X: 27
M: 3/4
L: 1/8
K: F
V: 1
|:\
[c2A2] [c3A3] [dB] | [cA]/2[B3/2G3/2] [AF]cde |\
|:\
c2 cccc | (c=B) B4 |\
(_B3/c//B//) g3 B | (BA) A4 |
(G3/A//G//) d3 F | F2 EFGA |\
(B2 A)cf>A | A2 G2 z2 |\
[c2A2] [c3A3] [dB] | [cA]/2[B3/2G3/2] [AF]cde |\
f2 (3agf (3ed^c | d2 (3fed (3=cBA |\
(3GBd F2 E2 |1 [F4A,4] z2 :|2 H[F4A,4] z2 |]
V: 2 clef=bass middle=d
|: f2 F2 z2 | c2 F2 z2 | f2 F2 z2 | c2 F2 z2 |\
[f2F2] z2 z2 | [b2B2] z2 z2 | Tb2 (3d'c'b (3agf |1 c'2 cBAG :|2 c'2 cfed ||
|: c2 c2 c2 | d2 d2 d2 | e2 e2 e2 | f3 FGA |\
[f2F2] z2 z2 | [b2B2] z2 z2 | Tb2 c'2 c2 |1 F3 GAB :|2 HF4 z2 |]


